X:125
T: Die elfjaehrige Markgraefin
N: Q0053C
O: Osteuropa, Tschechoslowakei, Sudetenland, Zips, Einsiedel
N: Grundton in der kleinen Oktave. Modulation.
R: Ballade, Braut - Werbung, Hochzeit, Minderjaehrige, Tod
M: 6/4
L: 1/4
K: Bb
d | f2fcde | d2AB2
B | g2gbag | f2cd2
f | bbbf_aa | gez3
g | gggfff | e2fd2

